X: 15256
T: Girl Of The House, The
R: jig
M: 6/8
K: Dmixolydian
|:F2D G2E|A2D FED|EFA G2E|FED ~E3|
F2F GFG|AGA cde|dcA GEA|DED D3:|
|:ABc AGF|G2G GFG|A2B cAG|AB^c d2e|
fed cAG|FAG FED|dcA GEA|DED D3:|

